X:1
T:Qui mange ma chair
T:Qui mange ma chair
T:Texte de Didier Rimaud Musique de Jacques Berthier
T:Arrangé par Maxence Lasserre-Engberts
T:Maxence Lasserre-Engberts 2019
T:Maxence Lasserre-Engberts 2019
T:Maxence Lasserre-Engberts 2019
T:Maxence Lasserre-Engberts 2019
T:Maxence Lasserre-Engberts 2019
T:Maxence Lasserre-Engberts 2019
T:Maxence Lasserre-Engberts 2019
T:Maxence Lasserre-Engberts 2019
T:Maxence Lasserre-Engberts 2019
T:Maxence Lasserre-Engberts 2019
T:Maxence Lasserre-Engberts 2019
T:Maxence Lasserre-Engberts 2019
C:Texte de Didier Rimaud Musique de Jacques Berthier
Z:Arrangé par Maxence Lasserre-Engberts
Z:Maxence Lasserre-Engberts 2019
%%score [ ( 1 2 ) ( 3 4 5 ) ] { ( 6 10 11 ) | ( 7 9 12 ) | 8 }
L:1/8
Q:1/4=60
M:4/4
K:Eb
V:1 treble nm="Sopranos\nAltos"
V:2 treble 
V:3 bass nm="Ténors\nBasses"
V:4 bass 
V:5 bass 
V:6 treble nm="Orgue" snm="Org."
V:10 treble 
V:11 treble 
V:7 bass 
V:9 bass 
V:12 bass 
V:8 bass-8 
V:1
 z8 | z8 | z8 | z8 | z8 | z8 | z8 | z8 | z8 | z8 | z8 | z8 | z8 | z8 | z8 | %15
w: |||||||||||||||
 z2 z!ppp! D"^sotto voce" E2 EE | D3 D E2 E2 | F3 F G2 G2 | F3 F E2 F2 | D2 z D E2 EE | %20
w: Qui man- ge ma|chair et boit mon|sang de- meure en|moi et moi en|lui, Qui man- ge ma|
 D3 D E2 E2 | F3 F G2 G2 | F3 E (FE) D2 |[M:2/4]!>(! C4!>)! |[M:4/4]!pp! z8 | z4 z!mp! EDC | %26
w: chair et boit mon|sang de- meure en|moi et moi _ en|lui.||Si vous ne|
 DDDD ECEG | B2 F2 z GFE | F3 D E2 (GF) | D4 z EDC | DDGD ECEG | B2 F2 z GEG | B3 G c2 =B2 | c8 | %34
w: man- gez pas la chair du Fils de|l'hom- me, vous n'au- rez|pas la vie en _|vous. Si vous ne|bu- vez pas le sang du Fils de|l'hom- me vous n'au- rez|pas la vie en|vous.|
[M:4/4] z2 z!ppp! D"^sotto voce" E2 EE | D3 D E2 E2 | F3 F G2 G2 | F3 F E2 F2 | D2 z D E2 EE | %39
w: Qui man- ge ma|chair et boit mon|sang de- meure en|moi et moi en|lui, Qui man- ge ma|
 D3 D E2 E2 | F3 F G2 G2 | F3 E (FE) D2 | C4[K:treble-8]"^Hommes a3"!mf! z2 G2 | G2 G2 G3 G | %44
w: chair et boit mon|sang de- meure en|moi et moi _ en|lui. 2. Je|suis le pain vi-|
 B4 z EEG | BBFD EEAA | G4 z2 G2 | G2 G2 G3 G | !fermata!B4 z2 =G2 | B2 c2 c2 =B2 | c8 | %51
w: vant: ce- lui qui|vient à moi n'au- ra plus ja- mais|faim; ce-|lui qui croit en|moi, plus|ja- mais n'au- ra|soif.|
[K:treble]"^(+Femmes)" z2 z D E2 EE | D3 D E2 E2 | F3 F G2 G2 | F3 F E2 F2 | D2 z D E2 EE | %56
w: Qui man- ge ma|chair et boit mon|sang de- meure en|moi et moi en|lui, Qui man- ge ma|
 D3 D E2 E2 | F3 F G2 G2 | F3 E (FE) D2 | C6 z2 | z8 | z8 | z8 | z8 | z8 | z8 | z8 | z8 | %68
w: chair et boit mon|sang de- meure en|moi et moi _ en|lui.|||||||||
 z2!mf! z D E2 EE | D3 D E2 E2 | F3 F G2 G2 | F3 F _E2 F2 | D2 z D E2 EE | D3 D E2 E2 | %74
w: Qui man- ge ma|chair et boit mon|sang de- meure en|moi et moi en|lui, Qui man- ge ma|chair et boit mon|
 F3 F G2 G2 |[M:5/4] F3 E (FE) D4 |[M:4/4] C4 z2 z"^Femme solo" G | GGGG G3 G | !tenuto!B4 z2 GG | %79
w: sang de- meure en|moi et moi _ en|lui. Le|vé- ri- ta- ble pain du|ciel, c'est mon|
 BBFF (E2 A2) | G4 z2 G2 |"^cresc." G3 D EEGG | !>!B2 !>!B!>!B !>!F3 G | B2 B"^rit."c (c2 =B2) | %84
w: Pè- re qui le don- *|ne. C'est|moi qui suis le pain de|Dieu, le vrai pain qui|don- ne la vi- *|
 c4 z4 |!mf! z2 z D E2 EE | D3 D E2 E2 | F3 F G2 G2 | F3 F E2 F2 | D2 z D E2 EE | D3 D E2 E2 | %91
w: e!|Qui man- ge ma|chair et boit mon|sang de- meure en|moi et moi en|lui, Qui man- ge ma|chair et boit mon|
 F3 F G2 G2 |[M:5/4] F3 E"^lento" (FE) D4 |[M:4/4] C8 | z4 z2!f! z"^Sopranos" G | G2 =A=B c^cde | %96
w: sang de- meure en|moi et moi _ en|lui.|Le|pain que je don- ne, c'est ma|
 =e4 z2 e2 | (f_e)dd (cB)(cd) | !^!c2 !^!=B2 z2 z c | d2 Bd"^élargissez un peu" edcB | f4 cBcd | %101
w: chair; Ma|chair _ pour la vie _ du _|mon- de. Tel|est le pain qui des- cend du|ciel: ce- lui qui le|
 !^!e2 !^!d z e2 f2 | !fermata![=eg]8 |"^molto marcato""^a tempo" z2 z [Gd] [Ae]2 [Ae][Ae] | %104
w: man- ge ne meurt|pas!|Qui man- ge ma|
 [Gd]3 [Gd] [Ae]2 [Ae]2 | [Bf]3 [Bf] [cg]2 [cg]2 | [Bf]3 [Bf] !^![Ae]2 !^![Bf]2 | %107
w: chair et boit mon|sang de- meure en|moi et moi en|
 [Gd]2 z [Gd] [Ae]2 [Ae][Ae] | [=Ad]3 [Ad] [_Ae]2 [Ae]2 | [Bf]3 [Bf] [cg]2 [cg]2 | %110
w: lui, Qui man- ge ma|chair et boit mon|sang de- meure en|
[M:5/4] [cf]3 [ce] ([=Bf]2 [ce]2) [Bd]2 |[M:4/4][Q:1/4=80]"^Stringendo" [c=eg]8- | [ceg]8 | z8 |] %114
w: moi et moi _ en|lui.|||
V:2
 x8 | x8 | x8 | x8 | x8 | x8 | x8 | x8 | x8 | x8 | x8 | x8 | x8 | x8 | x8 | x8 | x8 | x8 | x8 | %19
w: |||||||||||||||||||
 x8 | x8 | x8 | x8 |[M:2/4] x4 |[M:4/4] =B,4 C4 | =B,4 C4 | =B,4 C4 | D4 E4 | D4 C4 | =B,4 C4 | %30
w: |||||Ah... *||||||
 =B,4 C4 | D4 E4 | [DF]4 [DG]4 | [CG]8 |[M:4/4] x8 | x8 | x8 | x8 | x8 | x8 | x8 | x8 | %42
w: ||||||||||||
 x4[K:treble-8] z2 G2 | (GF) E2 E3 E | F4 z EEE | DDC=B, CCDE | (E2 D2) z2 G2 | (GF) E2 =E3 F | %48
w: ||||||
 _G4 z2 =G2 | G2 B2 =A2 _A2 | G8 |[K:treble] z2 z =B, C2 CC | (C2 =B,)B, C2 C2 | D3 D F2 E2 | %54
w: ||||||
 (E2 D)D C2 C2 | =B,2 z B, D2 CC | (C2 =B,)B, C2 C2 | D3 D F2 E2 | (E2 D)C DC(C=B,) | G,6 x2 | x8 | %61
w: |||||||
 x8 | x8 | x8 | x8 | x8 | x8 | x8 | z2 z =B, C2 CC | (C2 =B,)B, C2 C2 | D3 D E2 =E2 | %71
w: ||||||||||
 (=E2 D)C B,3 =A, | =A,2 =B,2 D2 CC | (C2 =B,)B, C2 C2 | C2 D2 F2 =E2 |[M:5/4] D4 C4 =B,2 | %76
w: |* Qui * * *||||
[M:4/4] C4 z4 | x8 | x8 | x8 | x8 | x8 | x8 | x8 | x8 | x8 | x8 | x8 | x8 | x8 | x8 | x8 | %92
w: ||||||||||||||||
[M:5/4] x10 |[M:4/4] x8 | x8 | x8 | x8 | x8 | x8 | x8 | x8 | x8 | x8 | x8 | x8 | x8 | x8 | x8 | %108
w: ||||||||||||||||
 x8 | x8 |[M:5/4] x10 |[M:4/4] x8 | x8 | x8 |] %114
w: ||||||
V:3
 z8 | z8 | z8 | z8 | z8 | z8 | z8 | z8 | z8 | z8 | z8 | z8 | z8 | z8 | z8 | %15
w: |||||||||||||||
 z2 z!ppp! D,"^sotto voce" E,2 E,E, | D,3 D, E,2 E,2 | F,3 F, G,2 G,2 | F,3 F, E,2 F,2 | %19
w: Qui man- ge ma|chair et boit mon|sang de- meure en|moi et moi en|
 D,2 z D, E,2 E,E, | D,3 D, E,2 E,2 | F,3 F, G,2 G,2 | F,3 E, (F,E,) D,2 |[M:2/4]!>(! C,4!>)! | %24
w: lui, Qui man- ge ma|chair et boit mon|sang de- meure en|moi et moi _ en|lui.|
[M:4/4]"^div."!pp! [D,G,]4 [E,G,]4 | [D,G,]4 [E,G,]4 | [D,G,]4 [E,G,]4 | [F,B,]4 [G,B,]4 | %28
w: Ah... *||||
 [F,B,]4 [E,A,]4 | [D,G,]4 [E,G,]4 | [D,G,]4 [E,G,]4 | [F,B,]4 [G,B,]4 | B,4 C2 =B,2 | [G,C]8 | %34
w: ||||||
[M:4/4] z2 z!ppp! D,"_sotto voce" E,2 E,E, | D,3 D, E,2 E,2 | F,3 F, G,2 G,2 | F,3 F, E,2 F,2 | %38
w: ||||
 D,2 z D, E,2 E,E, | D,3 D, E,2 E,2 | F,3 F, G,2 G,2 | F,3 E, (F,E,) D,2 | C,4!mf! z2!mf! G,2 | %43
w: |||||
 (G,F,)(E,D,) C,3 C, | D,4 z E,D,C, | B,,B,,A,,G,, A,,G,,F,,C, | =B,,4 z2 G,2 | %47
w: ||||
 (G,F,)(E,D,) C,3 C, | !fermata!_D,4 z2 (G,F,) | E,2 =E,2 F,2 F,2 | (F,4 E,4) | %51
w: ||||
 z2!mf! z G, G,2 G,G, | G,3 G, G,2 =A,2 | (=A,2 B,)B, B,2 B,2 | (C2 B,)B, B,2 A,2 | %55
w: ||||
 G,2 z G, G,2 G,G, | G,3 G, G,2 =A,2 | (C2 B,)B, B,2 B,2 | (C2 B,)A, (A,G,) F,2 | %59
w: ||||
 E,6!f! z"^Basse solo" E, | D,D,D,D, E,2 D,E, | F,2 B,,2 z2 G,2 | F,3 F, E,E,A,A, | %63
w: * 3. Ma|chair est u- ne vraie nour- ri-|tu- re, mon|sang est u- ne vraie bois-|
 G,2 z G, G,G,F,E, | D,2 z G, G,G,F,E, | B,4 z G,F,=E, | %66
w: son: si vous man- gez ma|chair, si vous bu- vez mon|sang, au der- nier|
 F,2"^rit." !>!F,!>!G, !>!A,!>!C!>!C!>!=B, | !>!C4 z4 | z2 z G, =A,2 A,A, | (=A,2 G,)G, G,2 F,2 | %70
w: jour, je vous res- sus- ci- te-|rai.|||
 (B,A,G,)A, (G,=A,) B,2 | =A,3 A, G,2 C2 | C2 =B,2 =A,2 A,A, | (=A,2 G,)G, _G,2 F,2 | %74
w: ||* Qui * * *||
 (B,A,G,)A, (G,=A,) B,2 |[M:5/4] =A,3 G, A,4 G,2 |[M:4/4] C4 z4 | z8 | z8 | z8 | z8 | z8 | z8 | %83
w: |||||||||
 z8 | z8 |!mf! z2 z D, E,2 E,E, | D,3 D, E,2 E,2 | F,3 F, G,2 G,2 | F,3 F, E,2 F,2 | %89
w: ||Qui man- ge ma|chair et boit mon|sang de- meure en|moi et moi en|
 D,2 z D, E,2 E,E, | D,3 D, E,2 E,2 | F,3 F, G,2 G,2 |[M:5/4] F,3 E,"_lento" (F,E,) D,4 | %93
w: lui, Qui man- ge ma|chair et boit mon|sang de- meure en|moi et moi _ en|
[M:4/4] C,8 |[K:treble]"^Altos, ténors, basses"!f! z2!fff! z G G2 FE | D2 D2 G3 E | B4 z2 G2 | %97
w: lui.|Le pain que je|don- ne, c'est ma|chair; Ma|
 B2 BF E2 A2 | !^!G2 !^!G2 z ECE | G2 GG G2 E2 | B4 GGEG | !^!B2 !^!B z c2 =B2 | !fermata!c8 | %103
w: chair pour la vie du|mon- de. Tel est le|pain qui des- cend du|ciel: ce- lui qui le|man- ge ne meurt|pas!|
[K:bass] z2 z [G,D] [A,E]2 [A,E][A,E] | [G,D]3 [G,D] [A,E]2 [A,E]2 | [B,F]3 [B,F] [CG]2 [CG]2 | %106
w: |||
 [B,F]3 [B,F] !^![A,E]2 !^![B,F]2 | [G,D]2 z [G,D] [A,E]2 [A,E][A,E] | %108
w: ||
 [=A,D]3 [A,D] [_A,E]2 [A,E]2 | [B,F]3 [B,F] [CG]2 [CG]2 | %110
w: ||
[M:5/4] [CF]3 [CE] ([G,D]2 [A,E]2) [G,F]2 |[M:4/4] [C=EG]8- | [CEG]8 | z8 |] %114
w: ||||
V:4
 x8 | x8 | x8 | x8 | x8 | x8 | x8 | x8 | x8 | x8 | x8 | x8 | x8 | x8 | x8 | x8 | x8 | x8 | x8 | %19
w: |||||||||||||||||||
 x8 | x8 | x8 | x8 |[M:2/4] x4 |[M:4/4] G,,4 C,4 | G,,4 C,4 | G,,4 C,4 | B,,4 E,4 | B,,4 A,,4 | %29
w: ||||||||||
 G,,4 C,4 | G,,4 C,4 | B,,4 E,4 | F,4 G,4 | x8 |[M:4/4] x8 | x8 | x8 | x8 | x8 | x8 | x8 | x8 | %42
w: |||||||||||||
 x8 | x8 | x8 | x8 | x8 | x8 | x8 | x8 | x8 | z2 z G,, C,2 C,C, | G,,3 G,, C,2 C,2 | %53
w: |||||||||||
 B,,3 B,, E,2 E,2 | B,,3 B,, A,,2 A,,2 | G,,2 z G,, C,2 C,C, | G,,3 G,, C,2 C,2 | %57
w: ||||
 B,,3 B,, E,2 E,2 | B,,3 F,, G,,2 G,,2 | C,6 x2 | x8 | x8 | x8 | x8 | x8 | x8 | x8 | x8 | %68
w: |||||||||||
 z2 z [G,,G,] [^F,,^F,]2 [F,,F,][F,,F,] | [G,,=F,]3 [G,,F,] [A,,E,]2 [=A,,E,]2 | D,3 D, C,2 ^C,2 | %71
w: |||
 D,3 D, E,2 F,2 | G,2 z [G,,G,] [^F,,^F,]2 [F,,F,][F,,F,] | [G,,=F,]3 [G,,F,] [A,,E,]2 [=A,,E,]2 | %74
w: |||
 [B,,E,]2 [=B,,D,]2 C,2 ^C,2 |[M:5/4] D,2 E,2 F,2 ^F,2 G,2 |[M:4/4] C,4 z4 | x8 | x8 | x8 | x8 | %81
w: * de- meure en|||||||
 x8 | x8 | x8 | x8 | x8 | x8 | x8 | x8 | x8 | x8 | x8 |[M:5/4] x10 |[M:4/4] x8 |[K:treble] x8 | %95
w: ||||||||||||||
 x8 | x8 | x8 | x8 | x8 | x8 | x8 | x8 |[K:bass] x8 | x8 | x8 | x8 | x8 | x8 | x8 |[M:5/4] x10 | %111
w: ||||||||||||||||
[M:4/4] x8 | x8 | x8 |] %114
w: |||
V:5
 x8 | x8 | x8 | x8 | x8 | x8 | x8 | x8 | x8 | x8 | x8 | x8 | x8 | x8 | x8 | x8 | x8 | x8 | x8 | %19
 x8 | x8 | x8 | x8 |[M:2/4] x4 |[M:4/4] x8 | x8 | x8 | x8 | x8 | x8 | x8 | x8 | x8 | x8 | %34
[M:4/4] x8 | x8 | x8 | x8 | x8 | x8 | x8 | x8 | x8 | x8 | x8 | x8 | x8 | x8 | x8 | x8 | x8 | x8 | %52
 x8 | x8 | x8 | x8 | x8 | x8 | x8 | x8 | x8 | x8 | x8 | x8 | x8 | x8 | x8 | x8 | x8 | x8 | %70
 B,,2 =B,,2 C,2 ^C,2 | x8 | x8 | x8 | x8 |[M:5/4] x10 |[M:4/4] x8 | x8 | x8 | x8 | x8 | x8 | x8 | %83
 x8 | x8 | x8 | x8 | x8 | x8 | x8 | x8 | x8 |[M:5/4] x10 |[M:4/4] x8 |[K:treble] x8 | x8 | x8 | %97
 x8 | x8 | x8 | x8 | x8 | x8 |[K:bass] x8 | x8 | x8 | x8 | x8 | x8 | x8 |[M:5/4] x10 |[M:4/4] x8 | %112
 x8 | x8 |] %114
V:6
!ppp! z8 | z8 | G,4 C4 | D4 C4 | [=B,D]4 [CE]4 | D4 E4 | F4 G4 | F4 E4 | D4 E4 | D4 E4 | %10
"^(cresc.)" F4 [EG]4 | [CEA]4 [E=A]4 | B3 c !^![DFAc]2 !^![DFA=B]2 |!f! [CEGc]2 z2 z4 | z8 | %15
!ppp! G,8- | G,8- | G,8- | G,8- | G,8- | G,8- | G,8- | G,8 |[M:2/4] [G,C]4 | %24
[M:4/4] [G,=B,D]4 [G,CE]4 | [G,=B,D]4 [G,CE]4 | [G,=B,D]4 [G,CE]4 | [B,DF]4 [B,EG]4 | %28
 [B,DF]4 [A,CE]4 | [G,=B,D]4 [G,CE]4 | [G,=B,D]4 [G,CE]4 | [B,DF]4 [B,EG]4 | [B,DF]4 [DG]4 | %33
 [CG]8 |[M:4/4] [G,D]4 [G,C]4 | [G,D]4 [G,C]4 | [G,D]4 [G,C]4 | [G,D]4 [G,C]4 | [G,D]4 [G,C]4 | %39
 [G,D]4 [G,C]4 | [G,D]4 [G,C]4 | [G,D]8 | [G,C]4 z2!p! G2 | G8 | [FBf]4 e2 dc | [DB]2 [DF]2 E2 A2 | %46
 G8- | G8 | !fermata![B,_D_GB]4 [=D^F=A]2 [D=G]2 | [EGB]2 [=EGc]2 [_EGc]2 [DFG=B]2 | [Gc]8 | %51
!mp! [=B,D]4 [CE]2 [CE]2 | D4 [CE]2 [CE]2 | [DF]4 [DFG]2 [EG]2 | F4 [CE]2 [CF]2 | %55
 [=B,D]4 [DE]2 [CE]2 | D4 [CE]2 [CE]2 | [DF]4 [DFG]2 [EG]2 | F3 E FE D2 | [G,C]6 z2 | F2 G6 | %61
 G_G F2 [dfd']2 [c_fc']2 | [Beb]2 [Ada]2 [Gcg]2 [FBf]2 | (3GgG (3gGg (3GgG (3gGg | %64
 (3GgG (3gGg (3GgG (3gGg | (3GgG (3gGg (3GgG (3gGg | (3GgG"^rit." (3gGg (3GgG (3gGg | [Gc=eg]4 z4 | %68
 D4 E4 | D4 E4 | F4 G4 | F4 _E2 F2 | D4 E4 | D4 E4 | F4 G4 |[M:5/4] F2 G2 =A4 =B2 | %76
[M:4/4] [Cc]4 z4 |[K:treble+8] [=Af]!ppp! [Af]2 [A_f]2 [Ae]2 [Be]- | %78
 [Be] [Bf]2 [Bf]2 [=Ae]2 [Ae]- | [Ae] [G_d]2 [Gd]2 [_Ae]2 [Ae]- | [Ae] [Gd]2 [Gd]2 [Gd]2 [Gd]- | %81
 [Gd] [Gd]2 [Gd]2 [G=Ad]2 [GAd]- | [GAd] [_A_d]2 [Ad_e]2 [Gcf]2 [Gcf]- | %83
 [Gcf] [Bf]2"^rit." [Bf]2 [=A=e]2 [_Ae] | [Gc=e]4 z4 |[K:treble]!mf! [=B,D]4 [CE]4 | %86
 [=B,D]4 [_B,CE]4 | [EF]4 [=EG]4 | [DF]4 [EF]4 | G6 F2 | F4 E4 | F4 G4 |[M:5/4] F3 E D6 | %93
[M:4/4] C8 |!mf! z2 z [EG] [EG]2 [DF][CE] | G2 =A=B c^cde | [=c=e]8 | b2 a2 g2 [Ff]2 | %98
 !^![FAce]2 !^![FG=Bd]2 [Gc]4 |"^élargissez un peu" d2 Bd edcB | f6 e2 | %101
 !^![FBe]2 !^![FBd]2 [Ge]2 [Af]2 | !fermata![Gc=e]8 |"^a tempo" [Gd]4 [Ae]4 | [Gd]4 [Ae]4 | %105
 [Bf]4 [cg]4 | [Bf]4 !^![Ace]2 !^![Bdf]2 | [G=Bd]4 [Ae]4 | [=Ad]4 [_Ae]4 | e2 d2 [Fd]2 [=Ec]2 | %110
[M:5/4] [_EAc]4 [G=Bd]2 [Ace]2 [GBd]2 | %111
[M:4/4]!f! !>![c=eg]!>![Bdf]!>![c_ea]!>![B_d_g] !>![c=e=g]!>![B=df]!>![c_ea]!>![B_d_g] | %112
 !>![c=e=g]!>![Bdf]!>![c_ea]!>![B_d_g] !>![c=e=g]!>![B=df]!>![c_ea]!>![B_d_g] | %113
 !fermata![c=e=gc']8 |] %114
V:7
 z4 C,,4- | G,,4- [G,,C,]4- | [G,,C,-]4 [C,G,]4 | G,8 | G,8- | G,8 | C2 B,2 B,4 | C2 B,4 A,2- | %8
 A,2 G,2 G,4- | x4 _B,2 =A,2 | =A,2 _A,2 G,4 | A,4 =A,4 | B,3 C !^![D,F,A,C]2 !^![D,F,A,=B,]2 | %13
 [E,G,C]2!ppp! z2 z4 | z8 | [C,,G,,C,]8- | [C,,G,,C,]8- | [C,,G,,C,]8- | [C,,G,,C,]8- | %19
 [C,,G,,C,]8- | [C,,G,,C,]8- | [C,,G,,C,]8- | [C,,G,,C,]8 |[M:2/4] [C,,G,,C,]4 | %24
[M:4/4]!ppp! [G,,D,]4 [G,,C,E,]4 | [G,,D,]4 [G,,C,E,]4 | [G,,D,]4 [G,,C,E,]4 | %27
 [B,,F,]4 [B,,E,G,]4 | [B,,F,]4 [A,,E,]4 | [G,,D,]4 [G,,C,E,]4 | [G,,D,]4 [G,,C,E,]4 | %31
 [B,,F,]4 [B,,E,G,]4 | [B,,F,]4 [G,,D,G,]4 | [C,G,]8 |[M:4/4]!ppp! [G,,D,]4 [G,,C,]4 | %35
 [G,,D,]4 [G,,C,]4 | [G,,D,]4 [G,,C,]4 | [G,,D,]4 [G,,C,]4 | [G,,D,]4 [G,,C,]4 | %39
 [G,,D,]4 [G,,C,]4 | [G,,D,]4 [G,,C,]4 | [G,,D,]8 | [G,,C,]4 z2 G,2 | %43
 z2[I:staff -1] E[I:staff +1]D C4 | [D,D]4 z E,D,[C,G,] | F,2 F,2 F,2 F,2 | [=B,,G,]4 z2 G,2 | %47
 G,F,E,D, C,B,,A,,G,, | !fermata!_G,,4 [^F,=A,]2 G,2 | [E,_B,_D]2 [=E,B,C]2 [F,=A,C]2 [F,_A,=B,]2 | %50
 D4 C4 | [F,G,]4 [E,G,]2 [E,G,]2 | D,E,F,A, G,2 [G,=A,]2 | =A,2 B,2 [G,B,]2 [G,B,]2 | %54
 C2 B,2 B,2 A,2 | [D,F,G,]4 [E,G,]2 [E,G,]2 | D,E,F,A, G,2 [G,=A,]2 | =A,2 B,2 [G,B,]2 [G,B,]2 | %58
 C2 B,A, A,G, F,2 | [C,E,]6 z2 |!mp! A,=A,B,=B, C2 B,2 | [=A,C]2 [_A,_B,-]2 [G,B,]4 | %62
 [F,A,_C]4 [E,=A,=C]2 [D,F,_A,B,]2 | [F,G,=B,D]4 [F,=A,CE]4 | [F,_A,=B,D]4 [F,_B,CE]4 | [G,_D]8 | %66
 [F,A,C]2 !^![F,A,C]2 !^![_E,F,A,C]2 !^![_D,F,A,C]2 | [C,=E,G,C]4 z4 | G,4 [^F,=A,]4 | %69
 =A,2 G,2 G,2 F,2 | B,A,G,A, G,=A, B,2 | =A,4 G,2 C2 | C2 =B,2 =A,4 | =A,2 G,2 _G,2 F,2 | %74
 B,A,G,A, G,=A, B,2 |[M:5/4] =A,3 G, F,2 ^F,2 G,2 |[M:4/4] C,4 z4 | %77
[K:treble]!ppp! [Gd]2 [Gd]2 [Gc]2 [Gc]2 | [_G_d]2 [Gd]2 [=Gc]2 [Gc]2 | [FB]2 [FB]2 [Fc]2 [Fc]2 | %80
 [EB]2 [EB]2 [Fc]2 [Fc]2 | [=E=B]2 [EB]2 [_Ec]2 [Ec]2 | [=E_B]2 [EB]2 [FB_e]2 [FBe]2 | %83
 [Gce]2 [Gce]2 [Fcd]2 [F=Bd]2 | [=EGcd]4 z4 |[K:bass] G,4 _G,2 F,2 | =E,2 F,2 _G,4 | %87
 [F,=A,]4 [G,^C]4 | =C4 =B,2 C2 | [G,=B,]4 [F,C]4 | G,2 A,2 =A,4 | B,2 =B,2 =A,2 _B,2 | %92
[M:5/4] B,2 =A,2 G,2 [=F,_A,]4 |[M:4/4] G,8 | [_E,G,B,]4 [F,=A,]4 | x4 E2 D^C | D4- [D=E]4 | %97
 [DF]4 E4 | !^![G,CE]2 !^![G,=B,D]2 [A,E]4 | [G,-DF]4 [G,E]4 | ([CE]2 [B,D]2) (D2 C2) | %101
 !^![F,C]2 !^![F,B,]2 [E,C]2 [D,=B,]2 | !fermata![C,G,C]8 | [=B,D]4 [_B,D]2 [A,C]2 | %104
 [=A,C]2 [G,=B,]2 [_B,D]2 [_A,C]2 | [CE]2 [B,D]2 [DF]2 [C=E]2 | %106
 [C=E]2 [B,D]2 !^![A,C_E]2 !^![B,DF]2 | [G,=B,D]4 [_B,D]2 [A,C]2 | [^F,C]4 [=F,=B,]4 | F,4 _A,4 | %110
[M:5/4] [D,F,A,]4 [D,G,=B,]2 [E,A,C]2 [D,G,B,]2 | %111
[M:4/4] !>![C,C]!>![B,,B,]!>![A,,A,]!>![_G,,_G,] !>![_F,,_F,]!>![G,,G,]!>![A,,A,]!>![B,,B,] | %112
 !>![C,C]!>![B,,B,]!>![A,,A,]!>![_G,,_G,] !>![_F,,_F,]!>![G,,G,]!>![A,,A,]!>![B,,B,] | %113
 !fermata![C,=E,G,C]8 |] %114
V:8
 C,,8- | C,,8- | C,,8- | C,,8 | G,,4 C,4 | G,,4 C,4 | B,,4 E,4 | B,,4 A,,4 | G,,4 C,4 | G,,4 C,4 | %10
 B,,4 E,2 _D,2 | C,4 _C,4 | B,,4 !^!A,,2 !^!G,,2 |!ppp! [C,,C,]8- | [C,,C,]8- | [C,,C,]8- | %16
 [C,,C,]8- | [C,,C,]8- | [C,,C,]8- | [C,,C,]8- | [C,,C,]8- | [C,,C,]8- | [C,,C,]8 |[M:2/4] C,,4 | %24
[M:4/4] G,,4 C,4 | G,,4 C,4 | G,,4 C,4 | B,,4 E,4 | B,,4 A,,4 | G,,4 C,4 | G,,4 C,4 | B,,4 E,4 | %32
 B,,4 G,,4 | C,8 |[M:4/4] G,,4 C,4 | G,,4 C,4 | G,,4 C,4 | G,,4 C,4 | G,,4 C,4 | G,,4 C,4 | %40
 G,,4 C,4 | G,,8 | C,4 z4 | z8 | z8 | z8 | z8 | z8 | !fermata!_G,,6 =G,,2 | G,,2 G,,2 =A,,2 =B,,2 | %50
 C,8 | G,,4 C,4 | G,,4 C,4 | B,,4 E,4 | B,,4 A,,4 | G,,4 C,4 | G,,4 C,4 | B,,4 E,4 | %58
 B,,3 F,, G,,4 | C,6 z2 | G,,4 A,,4 | B,,3 A,, G,,4 | A,,4 =A,,2 B,,2 | =B,,4 C,4 | D,4 E,4 | %65
 =E,8 | F,2 !^!F,2 !^!_E,2 !^!_D,2 | C,4 z4 | G,,4 ^F,,4 | G,,4 A,,2 =A,,2 | B,,2 =B,,2 C,2 ^C,2 | %71
 D,4 E,2 F,2 | G,2 G,,2 ^F,,4 | G,,4 A,,2 =A,,2 | B,,2 =B,,2 C,2 ^C,2 | %75
[M:5/4] D,2 E,2 F,2 ^F,2 G,2 |[M:4/4] C,4 z4 | z8 | z8 | z8 | z8 | z8 | z8 | z8 | z8 | G,,4 A,,4 | %86
 =A,,4 B,,4 | =B,,2 C,2 B,,2 _B,,2 | =A,,4 _A,,4 | G,,4 A,,3 =A,, | B,,3 =B,, C,4 | D,4 E,3 =E, | %92
[M:5/4] F,3 ^F, G,6 |[M:4/4] C,6 D,,2 | E,,4 F,,4 | G,,4 =A,,4 | B,,4 C,4 | B,,4 A,,4 | %98
 !^!G,,2 !^!G,,2 A,,4 | B,,4 C,4 | B,,4 C,4 | !^!B,,2 !^!B,,2 A,,2 G,,2 | !fermata![C,,C,]8 | %103
 G,,4 A,,4 | G,,4 F,,4 | B,,4 C,4 | B,,4 !^!A,,2 !^!B,,2 | G,,4 F,,4 | ^F,,4 _A,,4 | B,,4 A,,4 | %110
[M:5/4] [G,,G,]8- [G,,G,]2 |[M:4/4] [C,,C,]8- | [C,,C,]8- | !fermata![C,,C,]8 |] %114
V:9
 x8 | C,,8 | x8 | D,4 C,4 | x8 | x8 | x8 | x8 | x8 | G,8 | F,4 E,4 | G,2 F,2 [E,_G,]4 | %12
 [D,F,]4 x4 | C,8- | C,8- | x8 | x8 | x8 | x8 | x8 | x8 | x8 | x8 |[M:2/4] x4 |[M:4/4] x8 | x8 | %26
 x8 | x8 | x8 | x8 | x8 | x8 | x8 | x8 |[M:4/4] x8 | x8 | x8 | x8 | x8 | x8 | x8 | x8 | x8 | %43
 G,F,E,D, C,4 | x8 | B,,2 A,,G,, A,,G,,F,,C, | x8 | x8 | x8 | x8 | G,8 | x8 | x8 | F,2 G,_A, x4 | %54
 F,3 A, A,G,F,E, | x8 | x8 | F,2 G,_A, x4 | F,3 E, D,4 | x8 | x8 | x8 | x8 | x8 | x8 | %65
 C2 B,2 =A,2 B,2 | x8 | x8 | x8 | =F,4 E,4 | D,4 C,2 ^C,2 | D,4 E,2 F,2 | G,4 ^F,4 | =F,4 E,4 | %74
 E,2 D,2 C,2 ^C,2 |[M:5/4] D,2 E,2 F,E, D,4 |[M:4/4] x8 |[K:treble] x8 | x8 | x8 | x8 | x8 | x8 | %83
 x8 | x8 |[K:bass] D,4 E,4 | D,4 _E,4 | x8 | F,8 | x8 | F,4 ^F,2 G,2 | _A,4 G,4 | %92
[M:5/4] F,3 ^F, G,2 x4 |[M:4/4] F,2 =E,6 | x8 | [CE][=B,D][=A,C][G,B,] A,4 | B,8 | %97
 B,2 A,2 G,2 F,2 | x8 | x8 | x4 B,3 =A, | x8 | x8 | x8 | x8 | x8 | x8 | x8 | x8 | %109
 C2 _B,2 F,2 =E,2 |[M:5/4] x10 |[M:4/4] x8 | x8 | x8 |] %114
V:10
 x8 | x8 | x8 | x8 | x8 | C2 =B,2 C4 | E2 D4 E2- | E2 D4 C2- | C2 =B,2 D2 C2- | C2 =B,2 C4 | %10
 [CE]2 [B,D]2 B,3 =B, | x8 | [D_A]4 x4 | x8 | x8 | x8 | x8 | x8 | x8 | x8 | x8 | x8 | x8 | %23
[M:2/4] x4 |[M:4/4] x8 | x8 | x8 | x8 | x8 | x8 | x8 | x8 | x4 C2 =B,2 | x8 |[M:4/4] x8 | x8 | x8 | %37
 x8 | x8 | x8 | x8 | x8 | x8 | z F [Ec]2- [Ece]4 | x4 E4 | x2 C=B, C2 DE | E2 D2 z4 | x8 | %48
 x4 x2 G=F | x8 | F4 E4 | x8 | C2 =B,2 x4 | C2 B,2 x4 | E2 D2 x4 | x8 | C2 =B,2 x4 | C2 B,2 x4 | %58
 E2 DC DCC=B, | x6 z2 | F2- [DF]2 E2 F2 | E2 D2 x4 | x8 | x8 | x8 | x8 | x8 | x8 | =B,4 C4 | %69
 C2 =B,2 C4 | D4 E2 =E2 | =E2 DC B,3 =A, | =A,2 =B,2 D2 C2 | C2 =B,2 C4 | C2 D2 F2 =E2 | %75
[M:5/4] DC B,2 C4 =B,2 |[M:4/4] x8 |[K:treble+8] x8 | x8 | x8 | x8 | x8 | x8 | x8 | x8 | %85
[K:treble] x8 | x8 | x8 | x8 | D4 E4 | D4 D2 C2 | D4 C2 _D2 |[M:5/4] C8 =B,2 |[M:4/4] x8 | x8 | %95
 F4 G4 | ^F4 G4 | c8 | x8 | G8 | (B3 A) G4 | x8 | x8 | x8 | x8 | x8 | x8 | x8 | x8 | [F_B]4 G4 | %110
[M:5/4] x4 F6 |[M:4/4] x8 | x8 | x8 |] %114
V:11
 x8 | x8 | x8 | x8 | x8 | x8 | x8 | x8 | x8 | x8 | x8 | x8 | x8 | x8 | x8 | x8 | x8 | x8 | x8 | %19
 x8 | x8 | x8 | x8 |[M:2/4] x4 |[M:4/4] x8 | x8 | x8 | x8 | x8 | x8 | x8 | x8 | x8 | x8 | %34
[M:4/4] x8 | x8 | x8 | x8 | x8 | x8 | x8 | x8 | x8 | x8 | x8 | x8 | x8 | x4 C- [B,C]3 | x8 | x8 | %50
 x8 | x8 | x8 | x8 | x8 | x8 | x8 | x8 | x8 | x8 | =B,C x2 x4 | x8 | x8 | x8 | x8 | x8 | x8 | x8 | %68
 x8 | x8 | x8 | x8 | x8 | x8 | x8 |[M:5/4] x10 |[M:4/4] x8 |[K:treble+8] x8 | x8 | x8 | x8 | x8 | %82
 x8 | x8 | x8 |[K:treble] x8 | x8 | x8 | x8 | x8 | x8 | x8 |[M:5/4] x10 |[M:4/4] x8 | x8 | x8 | %96
 x8 | x8 | x8 | x8 | x8 | x8 | x8 | x8 | x8 | x8 | x8 | x8 | x8 | x8 |[M:5/4] x10 |[M:4/4] x8 | %112
 x8 | x8 |] %114
V:12
 x8 | x8 | x8 | x8 | x8 | x8 | x8 | x8 | x8 | x8 | x8 | x8 | x8 | x8 | x8 | x8 | x8 | x8 | x8 | %19
 x8 | x8 | x8 | x8 |[M:2/4] x4 |[M:4/4] x8 | x8 | x8 | x8 | x8 | x8 | x8 | x8 | x8 | x8 | %34
[M:4/4] x8 | x8 | x8 | x8 | x8 | x8 | x8 | x8 | x8 | x8 | x8 | x8 | x8 | x8 | x4 ^C=CC=B, | x8 | %50
 x8 | x8 | x8 | x8 | x8 | x8 | x8 | x8 | x8 | x8 | x8 | x8 | x8 | x8 | x8 | x8 | x8 | x8 | x8 | %69
 x8 | x8 | x8 | x8 | x8 | x8 |[M:5/4] x10 |[M:4/4] x8 |[K:treble] x8 | x8 | x8 | x8 | x8 | x8 | %83
 x8 | x8 |[K:bass] x8 | x8 | x8 | x8 | x8 | x8 | x8 |[M:5/4] x10 |[M:4/4] x8 | x8 | x8 | x8 | x8 | %98
 x8 | x8 | x8 | x8 | x8 | x8 | x8 | x8 | x8 | x8 | x8 | x8 |[M:5/4] x10 |[M:4/4] x8 | x8 | x8 |] %114

